X: 191
T: Rickets Ride
%R: march
Z: 2017 John Chambers <jc:trillian.mit.edu>
B: John Treat - "Gamut for the Fifes", 1779, p.19 #1
F: https://archive.org/details/GamutFortheFifes
M: 2/4	% actually 6/8, which is wrong.
L: 1/16
K: D
% - - - - - - - - - - - - - - - - - - - - - - - - -
af |\
d2d2d2 cd | e2e2 egfe | dcBA B2c2 | defg afge |\
d2d2d2 cd | e2e2 egfe | dcBA B2c2 | d6 :|
|:af |\
f2f2f2 af | g2g2g2 af | e2e2e2 de | f2f2fgag |\
d2d2d2 cd | e2e2 egfe | dcBA B2c2 | d6 :|
% - - - - - - - - - - - - - - - - - - - - - - - - -
